docs/abcrace/images/lower/g.svg

<svg xmlns="http://www.w3.org/2000/svg" width="504" height="882" viewBox="-10 0 504 882"><path fill="currentColor" d="M396 620V385q-64 168-201 169-115 0-170-91-35-57-35-139 0-187 123-272Q190 0 298 0q76 0 141 20 45 14 52 45 3 12 3 25v530q0 171-123 233-58 29-137 29-151-1-210-85-11-16-11-28 0-32 35-43 11-4 23-4 21 1 31 14 42 61 115 66 10 1 19 1 125 0 153-117 7-30 7-66zm0-482v-35q-43-24-100-24-142 0-186 123-17 48-17 111 0 123 73 155 19 8 41 8 85-2 139-125 50-116 50-213z"/></svg>

<svg xmlns="http://www.w3.org/2000/svg" xmlns:svg="http://www.w3.org/2000/svg" id="svg4" width="504" height="882" version="1.1" viewBox="-10 0 504 882"><path id="path2" fill="currentColor" d="M 396,620 V 385 Q 332,553 195,554 80,554 25,463 -10,406 -10,324 -10,137 113,52 190,0 298,0 q 76,0 141,20 45,14 52,45 3,12 3,25 V 620 Q 494,791 371,853 313,882 234,882 83,881 24,797 13,781 13,769 q 0,-32 35,-43 11,-4 23,-4 21,1 31,14 42,61 115,66 10,1 19,1 125,0 153,-117 7,-30 7,-66 z m 0,-482 V 103 Q 353,79 296,79 154,79 110,202 93,250 93,313 q 0,123 73,155 19,8 41,8 85,-2 139,-125 50,-116 50,-213 z"/></svg>
